X: 12442
T: Farewell To Ballinahulla
R: slide
M: 12/8
K: Amajor
|:E|ABA ABc|ece a2 e|ecA ABc|ecA B2 G|
ABA AB/c/d|ece a2 B|cde fdB|BAG A2:|
|:e|aba a2 e|fga e2 g|aec Acd|ecA B2 e|
[1 aa/a/a aec|fga e2 d|cde fdB|BAG A2:|
[2 cde def|ee/f/g a2 B|cde fdB|BAG A3||

